images/search.svg

<svg width="24" height="24" fill="none" xmlns="http://www.w3.org/2000/svg"><path fill-rule="evenodd" clip-rule="evenodd" d="M5 11c0-3.309 2.691-6 6-6s6 2.691 6 6-2.691 6-6 6-6-2.691-6-6Zm15.707 8.293-3.395-3.396A7.952 7.952 0 0 0 19 11c0-4.411-3.589-8-8-8s-8 3.589-8 8 3.589 8 8 8a7.952 7.952 0 0 0 4.897-1.688l3.396 3.395a.997.997 0 0 0 1.414 0 .999.999 0 0 0 0-1.414Z" fill="#000"/><mask id="a" style="mask-type:alpha" maskUnits="userSpaceOnUse" x="3" y="3" width="19" height="18"><path fill-rule="evenodd" clip-rule="evenodd" d="M5 11c0-3.309 2.691-6 6-6s6 2.691 6 6-2.691 6-6 6-6-2.691-6-6Zm15.707 8.293-3.395-3.396A7.952 7.952 0 0 0 19 11c0-4.411-3.589-8-8-8s-8 3.589-8 8 3.589 8 8 8a7.952 7.952 0 0 0 4.897-1.688l3.396 3.395a.997.997 0 0 0 1.414 0 .999.999 0 0 0 0-1.414Z" fill="#fff"/></mask><g mask="url(#a)"><path fill="#000" d="M0 0h24v24H0z"/></g></svg>

<svg width="24" height="24" viewBox="0 0 24 24" fill="none" xmlns="http://www.w3.org/2000/svg">
<g id="Icon/Outline/search">
<path id="Mask" fill-rule="evenodd" clip-rule="evenodd" d="M5 11C5 7.691 7.691 5 11 5C14.309 5 17 7.691 17 11C17 14.309 14.309 17 11 17C7.691 17 5 14.309 5 11ZM20.707 19.293L17.312 15.897C18.365 14.543 19 12.846 19 11C19 6.589 15.411 3 11 3C6.589 3 3 6.589 3 11C3 15.411 6.589 19 11 19C12.846 19 14.543 18.365 15.897 17.312L19.293 20.707C19.488 20.902 19.744 21 20 21C20.256 21 20.512 20.902 20.707 20.707C21.098 20.316 21.098 19.684 20.707 19.293Z" fill="black"/>
<mask id="mask0_1_25" style="mask-type:alpha" maskUnits="userSpaceOnUse" x="3" y="3" width="19" height="18">
<path id="Mask_2" fill-rule="evenodd" clip-rule="evenodd" d="M5 11C5 7.691 7.691 5 11 5C14.309 5 17 7.691 17 11C17 14.309 14.309 17 11 17C7.691 17 5 14.309 5 11ZM20.707 19.293L17.312 15.897C18.365 14.543 19 12.846 19 11C19 6.589 15.411 3 11 3C6.589 3 3 6.589 3 11C3 15.411 6.589 19 11 19C12.846 19 14.543 18.365 15.897 17.312L19.293 20.707C19.488 20.902 19.744 21 20 21C20.256 21 20.512 20.902 20.707 20.707C21.098 20.316 21.098 19.684 20.707 19.293Z" fill="white"/>
</mask>
<g mask="url(#mask0_1_25)">
<g id="&#240;&#159;&#142;&#168; Color">
<rect id="Base" width="24" height="24" fill="black"/>
</g>
</g>
</g>
</svg>
